X: 8542
T: Crib Of Perches, The
R: reel
M: 4/4
K: Dmajor
|:A3B AGFD|(3EFG AB c2cA|(3GAG EC G,CEG|cG~G2 AGFG|
~A3B AGFD|(3EFG AB c2cA|df~f2 e^cdB|AFGE FDD2:|
|:df~f2 af~f2|bfaf gfed|cdef ge~e2|gecA GABz|
df~f2 af~f2|d2fd edcA|(3Bcd ec decB|AFGE D4:|

